packages/foundations/assets/icons/functional/images/navigation/log_in_32.svg

<svg xmlns="http://www.w3.org/2000/svg" width="32" height="32" fill="none"><g clip-path="url(#a)"><path fill="#1A1C1F" fill-rule="evenodd" d="M25.25 4c1.656 0 3 1.344 3 3v18c0 1.656-1.344 3-3 3h-6c-.563 0-1-.438-1-1s.437-1 1-1h6c.562 0 1-.438 1-1V7c0-.562-.438-1-1-1h-6c-.563 0-1-.437-1-1s.437-1 1-1zm-11 5c.25 0 .5.094.687.281l6.032 6.032a.97.97 0 0 1 .281.687c0 .25-.094.531-.281.719l-6 6a1.05 1.05 0 0 1-.719.281c-.594 0-1-.437-1-1 0-.25.094-.5.281-.687L17.844 17H4.75c-.562 0-1-.437-1-1 0-.531.438-1 1-1h13.094l-4.313-4.281c-.219-.188-.281-.469-.281-.719 0-.562.406-1 1-1" clip-rule="evenodd"/></g><defs><clipPath id="a"><path fill="#fff" d="M0 0h32v32H0z"/></clipPath></defs></svg>

<svg width="32" height="32" viewBox="0 0 32 32" fill="none" xmlns="http://www.w3.org/2000/svg">
<g clip-path="url(#clip0_187_42)">
<path fill-rule="evenodd" clip-rule="evenodd" d="M25.25 4C26.906 4 28.25 5.344 28.25 7V25C28.25 26.656 26.906 28 25.25 28H19.25C18.687 28 18.25 27.562 18.25 27C18.25 26.437 18.687 26 19.25 26H25.25C25.812 26 26.25 25.562 26.25 25V7C26.25 6.438 25.812 6 25.25 6H19.25C18.687 6 18.25 5.563 18.25 5C18.25 4.437 18.687 4 19.25 4H25.25ZM14.25 9C14.5 9 14.75 9.094 14.937 9.281L20.969 15.313C21.156 15.5 21.25 15.75 21.25 16C21.25 16.25 21.156 16.531 20.969 16.719L14.969 22.719C14.781 22.906 14.5 23 14.25 23C13.656 23 13.25 22.563 13.25 22C13.25 21.75 13.344 21.5 13.531 21.313L17.844 17H4.75C4.188 17 3.75 16.563 3.75 16C3.75 15.469 4.188 15 4.75 15H17.844L13.531 10.719C13.312 10.531 13.25 10.25 13.25 10C13.25 9.438 13.656 9 14.25 9Z" fill="#1A1C1F"/>
</g>
<defs>
<clipPath id="clip0_187_42">
<rect width="32" height="32" fill="white"/>
</clipPath>
</defs>
</svg>
